svgs/regular/gamepad.svg

<svg xmlns="http://www.w3.org/2000/svg" viewBox="0 0 640 512"><!-- Font Awesome Pro 6.0.0-alpha2 by @fontawesome - https://fontawesome.com License - https://fontawesome.com/license (Commercial License) --><path d="M400 272C382.375 272 368 286.375 368 304S382.375 336 400 336S432 321.625 432 304S417.625 272 400 272ZM247.951 232H215.951V200C215.951 186.799 205.15 176 191.951 176C178.75 176 167.951 186.799 167.951 200V232H135.951C122.75 232 111.953 242.799 111.953 256C111.953 269.199 122.75 280 135.951 280H167.951V312C167.951 325.199 178.75 336 191.951 336C205.15 336 215.951 325.199 215.951 312V280H247.951C261.15 280 271.951 269.199 271.951 256C271.951 242.799 261.15 232 247.951 232ZM464 176C446.375 176 432 190.375 432 208S446.375 240 464 240S496 225.625 496 208S481.625 176 464 176ZM448 64H192C85.961 64 0 149.961 0 256S85.961 448 192 448H448C554.039 448 640 362.039 640 256S554.039 64 448 64ZM448 400H192C112.598 400 48 335.402 48 256S112.598 112 192 112H448C527.402 112 592 176.598 592 256S527.402 400 448 400Z"/></svg>

<svg xmlns="http://www.w3.org/2000/svg" viewBox="0 0 640 512"><!--! Font Awesome Pro 6.3.0 by @fontawesome - https://fontawesome.com License - https://fontawesome.com/license (Commercial License) Copyright 2023 Fonticons, Inc. --><path d="M400 272c-17.62 0-32 14.38-32 32s14.38 32 32 32s32-14.38 32-32S417.6 272 400 272zM247.1 232h-32v-32c0-13.2-10.78-24-23.98-24c-13.2 0-24.02 10.8-24.02 24v32L136 231.1C122.8 231.1 111.1 242.8 111.1 256c0 13.2 10.85 23.99 24.05 23.99L167.1 280v32c0 13.2 10.82 24 24.02 24c13.2 0 23.98-10.8 23.98-24v-32h32c13.2 0 24.02-10.8 24.02-24C271.1 242.8 261.2 232 247.1 232zM464 176c-17.62 0-32 14.38-32 32s14.38 32 32 32s32-14.38 32-32S481.6 176 464 176zM448 64H192C85.96 64 0 149.1 0 256s85.96 192 192 192h256c106 0 192-85.96 192-192S554 64 448 64zM448 400H192c-79.4 0-144-64.6-144-144S112.6 112 192 112h256c79.4 0 144 64.6 144 144S527.4 400 448 400z"/></svg>
